packages/kaspersky-hexa-ui-icons/src/iconsSVGs/16/SDSolid.svg

<svg width="16" height="16" viewBox="0 0 16 16" fill="none" xmlns="http://www.w3.org/2000/svg">
<path fill-rule="evenodd" clip-rule="evenodd" d="M2.68335 3.39985C2.68335 2.26767 3.60117 1.34985 4.73335 1.34985H9.7597C10.1091 1.34985 10.4395 1.50866 10.6577 1.78145L13.0647 4.79018C13.2278 4.99409 13.3167 5.24745 13.3167 5.50858V12.5999C13.3167 13.732 12.3989 14.6499 11.2667 14.6499H4.73335C3.60116 14.6499 2.68335 13.732 2.68335 12.5999V3.39985ZM6.0001 4.01648C6.35908 4.01648 6.6501 4.30749 6.6501 4.66648V5.99981C6.6501 6.3588 6.35908 6.64981 6.0001 6.64981C5.64111 6.64981 5.3501 6.3588 5.3501 5.99981V4.66648C5.3501 4.30749 5.64111 4.01648 6.0001 4.01648ZM8.66676 4.01648C9.02575 4.01648 9.31676 4.30749 9.31676 4.66648V5.99981C9.31676 6.3588 9.02575 6.64981 8.66676 6.64981C8.30778 6.64981 8.01676 6.3588 8.01676 5.99981V4.66648C8.01676 4.30749 8.30778 4.01648 8.66676 4.01648Z" fill="black"/>
</svg>

<svg xmlns="http://www.w3.org/2000/svg" width="16" height="16" fill="none" viewBox="0 0 16 16"><path fill="#000" fill-rule="evenodd" d="M2.6834 3.4c0-1.1322.9178-2.05 2.05-2.05h5.0263c.3494 0 .6798.1588.898.4316l2.407 3.0087c.1631.204.252.4573.252.7184V12.6c0 1.1322-.9178 2.05-2.05 2.05H4.7333c-1.1321 0-2.05-.9178-2.05-2.05zM6 4.0166a.65.65 0 0 1 .65.65v1.3333a.65.65 0 0 1-1.3 0V4.6666a.65.65 0 0 1 .65-.65m2.6667 0a.65.65 0 0 1 .65.65v1.3333a.65.65 0 0 1-1.3 0V4.6666a.65.65 0 0 1 .65-.65"/></svg>
